icons/1_Primary/RU-CENTER.svg

<svg xmlns="http://www.w3.org/2000/svg" width="1024" height="1024" fill="none">
   <g clip-path="url(#a)">
      <path fill="#54688C" d="M512 1024c282.77 0 512-229.23 512-512S794.77 0 512 0 0 229.23 0 512s229.23 512 512 512Z"/>
      <path fill="#fff" d="M429.3 528.72c-5.39 0-10.45-.67-15.16-2.01-4.72-1.35-8.83-3.43-12.35-6.26-3.43-2.78-6.1-6.27-8.02-10.46-1.92-4.2-2.89-9.05-2.89-14.56 0-7.12 1.35-13.73 4.05-19.83 2.7-6.1 6.49-11.44 11.36-16.01 4.79-4.48 10.63-8.03 17.52-10.64 6.9-2.62 14.36-3.92 22.37-3.92 4.83 0 9.63.54 14.39 1.63 4.76 1.08 9.18 2.66 13.26 4.73l-5.35 21.69h-3.59c-2.76-3.34-5.89-5.83-9.39-7.45-3.49-1.62-7.42-2.44-11.79-2.44-7.97 0-14.38 2.85-19.21 8.53s-7.25 12.77-7.25 21.25c0 5.9 1.49 10.31 4.47 13.23 2.98 2.92 7.61 4.39 13.9 4.39 4.87 0 9.32-1 13.33-3s7.45-4.22 10.31-6.67h3.59l-5.35 21.68c-5.07 2.21-9.51 3.79-13.33 4.74-3.82.94-8.79 1.41-14.89 1.41l.02-.03Zm106.9-51.98c.14-.85.25-1.64.32-2.34.07-.71.11-1.44.11-2.2 0-3.74-1.16-6.6-3.46-8.58-2.31-1.99-5.63-2.98-9.96-2.98-5.23 0-9.62 1.42-13.18 4.26-3.56 2.84-6.25 6.79-8.09 11.85h34.26v-.01Zm-19.38 51.99c-13.47 0-23.87-2.99-31.2-8.98-7.32-5.99-10.99-14.26-10.99-24.81 0-7.21 1.2-13.83 3.59-19.86 2.39-6.03 5.84-11.33 10.35-15.91 4.31-4.43 9.72-7.93 16.19-10.53 6.48-2.59 13.6-3.89 21.35-3.89 11.77 0 20.66 2.4 26.65 7.18 5.98 4.79 8.98 11.85 8.98 21.19 0 3.21-.32 6.34-.95 9.41-.64 3.07-1.47 6.11-2.5 9.12h-58.82v1.63c0 5.5 1.93 9.82 5.78 12.92 3.86 3.11 9.77 4.66 17.72 4.66 5.55 0 10.8-.94 15.76-2.82 4.96-1.88 9.28-3.98 12.94-6.29h2.82l-4.73 20.41c-4.93 2.17-10.11 3.8-15.56 4.91-5.44 1.11-11.24 1.66-17.4 1.66h.02Zm139.54-78.55c-3.94-3.44-9.46-5.15-16.56-5.15-5.17 0-9.9.97-14.2 2.89-4.3 1.94-9.05 4.62-14.27 8.06l2.09-8.76h-34.31l-3.88 16.74h8.84l-14.4 62.57h25.49l12.87-56.22c3.29-1.74 6.24-3.04 8.88-3.92 2.63-.87 4.95-1.3 6.97-1.3 4.13 0 6.97.7 8.52 2.11 1.55 1.42 2.33 3.65 2.33 6.72 0 1.79-.19 3.73-.57 5.79-.37 2.07-.89 4.57-1.54 7.48l-8.99 39.34h25.66l11.8-51.63c.42-1.78.73-3.5.91-5.16.19-1.65.28-3.18.28-4.59 0-6.54-1.97-11.54-5.91-14.97h-.01Zm133.8 26.56c.14-.85.24-1.64.31-2.34.07-.71.11-1.44.11-2.2 0-3.74-1.16-6.6-3.47-8.58-2.3-1.99-5.62-2.98-9.96-2.98-5.23 0-9.62 1.42-13.17 4.26-3.56 2.84-6.25 6.79-8.09 11.85h34.26l.01-.01Zm-19.38 51.99c-13.48 0-23.87-2.99-31.2-8.98-7.32-5.99-10.99-14.26-10.99-24.81 0-7.21 1.2-13.83 3.59-19.86a47.263 47.263 0 0 1 10.36-15.91c4.32-4.43 9.71-7.93 16.19-10.53 6.48-2.59 13.59-3.89 21.34-3.89 11.78 0 20.67 2.4 26.66 7.18 5.99 4.79 8.98 11.85 8.98 21.19 0 3.21-.32 6.34-.95 9.41-.63 3.07-1.47 6.11-2.5 9.12h-58.82v1.63c0 5.5 1.93 9.82 5.78 12.92 3.86 3.11 9.76 4.66 17.71 4.66 5.55 0 10.8-.94 15.76-2.82 4.97-1.88 9.28-3.98 12.95-6.29h2.82l-4.72 20.41c-4.93 2.17-10.12 3.8-15.56 4.91-5.45 1.11-11.24 1.66-17.4 1.66Zm119.61-57.29h-2.24c-1.13-.38-2.72-.66-4.78-.84-2.06-.19-4.1-.29-6.11-.29-3.33 0-6.54.25-9.63.74-3.09.5-6.28 1.28-9.55 2.37l-12.27 53.11h-25.5l18.32-79.32h25.5l-2.69 11.66c4.77-3.53 9.54-6.4 14.3-8.62 4.75-2.21 9.54-3.32 14.37-3.32.89 0 1.89.03 2.98.07 1.11.05 2.08.12 2.92.21l-5.62 24.23Zm-174.75-24.23 5.19-22.67h-25.42l-5.21 22.67h-10.44l-3.88 16.74h10.69l-14.38 62.58h25.42c.16-.64.28-1.29.44-1.93l13.94-60.65h16.92l3.85-16.74h-17.13.01Zm-497.38 16.33c-2-1.31-4.97-1.97-8.88-1.97h-9.95l-4.86 21.03h9.9c5.34 0 9.47-1.09 12.4-3.28 2.93-2.19 4.4-5.22 4.4-9.1 0-3.15-1-5.38-3.01-6.69v.01Zm101.53 33.3c-2.54 10.83-6.86 18.69-12.93 23.58-6.08 4.89-14.88 7.34-26.4 7.34-10.27 0-18.04-1.85-23.31-5.55-5.27-3.7-7.9-9.29-7.9-16.8 0-1.54.12-3.1.36-4.68.24-1.58.51-3.02.79-4.31l11.2-48.47h20.28l-11.17 48.52c-.25.98-.45 2.06-.61 3.24-.16 1.17-.24 2.15-.24 2.92 0 3.29.99 5.8 2.97 7.49 1.97 1.7 5.24 2.55 9.82 2.55s8.03-1.23 10.77-3.68 4.71-6.27 5.9-11.46l11.46-49.58h20.32l-11.31 48.89Zm-80.02 29.39h-22.45l-14.68-28.71h-11.3l-6.62 28.71h-20.11l18-78.29h30.44c9.54 0 16.9 1.62 22.11 4.86 5.2 3.24 7.8 8.2 7.8 14.85 0 6.28-1.9 11.55-5.71 15.82-3.81 4.28-8.97 7.5-15.51 9.68l18.03 33.07v.01Zm8.94-158.39c-66.66 0-120.69 54.25-120.69 121.16s54.03 121.16 120.69 121.16 120.7-54.24 120.7-121.16c0-66.92-54.04-121.16-120.7-121.16Zm399.18 222.85c89.16-1.4 164.98 10.05 241.24 28.27-65.84-29.75-137.2-48.99-218.49-54.07-17.92-1.12-36.32-1.55-55.25-1.26-153.25 2.39-289.37 51.61-378.36 126.77 106.23-58.33 250.91-97.21 410.87-99.7l-.01-.01Z"/>
   </g>
   <defs>
      <clipPath id="a">
         <path fill="#fff" d="M0 0h1024v1024H0z"/>
      </clipPath>
   </defs>
</svg>

<svg width="1024" height="1024" viewBox="0 0 1024 1024" fill="none" xmlns="http://www.w3.org/2000/svg">
<g clip-path="url(#clip0_2_3375)">
<path d="M512 1024C794.77 1024 1024 794.77 1024 512C1024 229.23 794.77 0 512 0C229.23 0 0 229.23 0 512C0 794.77 229.23 1024 512 1024Z" fill="#54688C"/>
<path d="M429.3 528.72C423.91 528.72 418.85 528.05 414.14 526.71C409.42 525.36 405.31 523.28 401.79 520.45C398.36 517.67 395.69 514.18 393.77 509.99C391.85 505.79 390.88 500.94 390.88 495.43C390.88 488.31 392.23 481.7 394.93 475.6C397.63 469.5 401.42 464.16 406.29 459.59C411.08 455.11 416.92 451.56 423.81 448.95C430.71 446.33 438.17 445.03 446.18 445.03C451.01 445.03 455.81 445.57 460.57 446.66C465.33 447.74 469.75 449.32 473.83 451.39L468.48 473.08H464.89C462.13 469.74 459 467.25 455.5 465.63C452.01 464.01 448.08 463.19 443.71 463.19C435.74 463.19 429.33 466.04 424.5 471.72C419.67 477.4 417.25 484.49 417.25 492.97C417.25 498.87 418.74 503.28 421.72 506.2C424.7 509.12 429.33 510.59 435.62 510.59C440.49 510.59 444.94 509.59 448.95 507.59C452.96 505.59 456.4 503.37 459.26 500.92H462.85L457.5 522.6C452.43 524.81 447.99 526.39 444.17 527.34C440.35 528.28 435.38 528.75 429.28 528.75L429.3 528.72ZM536.2 476.74C536.34 475.89 536.45 475.1 536.52 474.4C536.59 473.69 536.63 472.96 536.63 472.2C536.63 468.46 535.47 465.6 533.17 463.62C530.86 461.63 527.54 460.64 523.21 460.64C517.98 460.64 513.59 462.06 510.03 464.9C506.47 467.74 503.78 471.69 501.94 476.75H536.2V476.74ZM516.82 528.73C503.35 528.73 492.95 525.74 485.62 519.75C478.3 513.76 474.63 505.49 474.63 494.94C474.63 487.73 475.83 481.11 478.22 475.08C480.61 469.05 484.06 463.75 488.57 459.17C492.88 454.74 498.29 451.24 504.76 448.64C511.24 446.05 518.36 444.75 526.11 444.75C537.88 444.75 546.77 447.15 552.76 451.93C558.74 456.72 561.74 463.78 561.74 473.12C561.74 476.33 561.42 479.46 560.79 482.53C560.15 485.6 559.32 488.64 558.29 491.65H499.47V493.28C499.47 498.78 501.4 503.1 505.25 506.2C509.11 509.31 515.02 510.86 522.97 510.86C528.52 510.86 533.77 509.92 538.73 508.04C543.69 506.16 548.01 504.06 551.67 501.75H554.49L549.76 522.16C544.83 524.33 539.65 525.96 534.2 527.07C528.76 528.18 522.96 528.73 516.8 528.73H516.82ZM656.36 450.18C652.42 446.74 646.9 445.03 639.8 445.03C634.63 445.03 629.9 446 625.6 447.92C621.3 449.86 616.55 452.54 611.33 455.98L613.42 447.22H579.11L575.23 463.96H584.07L569.67 526.53H595.16L608.03 470.31C611.32 468.57 614.27 467.27 616.91 466.39C619.54 465.52 621.86 465.09 623.88 465.09C628.01 465.09 630.85 465.79 632.4 467.2C633.95 468.62 634.73 470.85 634.73 473.92C634.73 475.71 634.54 477.65 634.16 479.71C633.79 481.78 633.27 484.28 632.62 487.19L623.63 526.53H649.29L661.09 474.9C661.51 473.12 661.82 471.4 662 469.74C662.19 468.09 662.28 466.56 662.28 465.15C662.28 458.61 660.31 453.61 656.37 450.18H656.36ZM790.16 476.74C790.3 475.89 790.4 475.1 790.47 474.4C790.54 473.69 790.58 472.96 790.58 472.2C790.58 468.46 789.42 465.6 787.11 463.62C784.81 461.63 781.49 460.64 777.15 460.64C771.92 460.64 767.53 462.06 763.98 464.9C760.42 467.74 757.73 471.69 755.89 476.75H790.15L790.16 476.74ZM770.78 528.73C757.3 528.73 746.91 525.74 739.58 519.75C732.26 513.76 728.59 505.49 728.59 494.94C728.59 487.73 729.79 481.11 732.18 475.08C734.522 469.13 738.046 463.718 742.54 459.17C746.86 454.74 752.25 451.24 758.73 448.64C765.21 446.05 772.32 444.75 780.07 444.75C791.85 444.75 800.74 447.15 806.73 451.93C812.72 456.72 815.71 463.78 815.71 473.12C815.71 476.33 815.39 479.46 814.76 482.53C814.13 485.6 813.29 488.64 812.26 491.65H753.44V493.28C753.44 498.78 755.37 503.1 759.22 506.2C763.08 509.31 768.98 510.86 776.93 510.86C782.48 510.86 787.73 509.92 792.69 508.04C797.66 506.16 801.97 504.06 805.64 501.75H808.46L803.74 522.16C798.81 524.33 793.62 525.96 788.18 527.07C782.73 528.18 776.94 528.73 770.78 528.73ZM890.39 471.44H888.15C887.02 471.06 885.43 470.78 883.37 470.6C881.31 470.41 879.27 470.31 877.26 470.31C873.93 470.31 870.72 470.56 867.63 471.05C864.54 471.55 861.35 472.33 858.08 473.42L845.81 526.53H820.31L838.63 447.21H864.13L861.44 458.87C866.21 455.34 870.98 452.47 875.74 450.25C880.49 448.04 885.28 446.93 890.11 446.93C891 446.93 892 446.96 893.09 447C894.2 447.05 895.17 447.12 896.01 447.21L890.39 471.44ZM715.64 447.21L720.83 424.54H695.41L690.2 447.21H679.76L675.88 463.95H686.57L672.19 526.53H697.61C697.77 525.89 697.89 525.24 698.05 524.6L711.99 463.95H728.91L732.76 447.21H715.63H715.64ZM218.26 463.54C216.26 462.23 213.29 461.57 209.38 461.57H199.43L194.57 482.6H204.47C209.81 482.6 213.94 481.51 216.87 479.32C219.8 477.13 221.27 474.1 221.27 470.22C221.27 467.07 220.27 464.84 218.26 463.53V463.54ZM319.79 496.84C317.25 507.67 312.93 515.53 306.86 520.42C300.78 525.31 291.98 527.76 280.46 527.76C270.19 527.76 262.42 525.91 257.15 522.21C251.88 518.51 249.25 512.92 249.25 505.41C249.25 503.87 249.37 502.31 249.61 500.73C249.85 499.15 250.12 497.71 250.4 496.42L261.6 447.95H281.88L270.71 496.47C270.46 497.45 270.26 498.53 270.1 499.71C269.94 500.88 269.86 501.86 269.86 502.63C269.86 505.92 270.85 508.43 272.83 510.12C274.8 511.82 278.07 512.67 282.65 512.67C287.23 512.67 290.68 511.44 293.42 508.99C296.16 506.54 298.13 502.72 299.32 497.53L310.78 447.95H331.1L319.79 496.84ZM239.77 526.23H217.32L202.64 497.52H191.34L184.72 526.23H164.61L182.61 447.94H213.05C222.59 447.94 229.95 449.56 235.16 452.8C240.36 456.04 242.96 461 242.96 467.65C242.96 473.93 241.06 479.2 237.25 483.47C233.44 487.75 228.28 490.97 221.74 493.15L239.77 526.22V526.23ZM248.71 367.84C182.05 367.84 128.02 422.09 128.02 489C128.02 555.91 182.05 610.16 248.71 610.16C315.37 610.16 369.41 555.92 369.41 489C369.41 422.08 315.37 367.84 248.71 367.84ZM647.89 590.69C737.05 589.29 812.87 600.74 889.13 618.96C823.29 589.21 751.93 569.97 670.64 564.89C652.72 563.77 634.32 563.34 615.39 563.63C462.14 566.02 326.02 615.24 237.03 690.4C343.26 632.07 487.94 593.19 647.9 590.7L647.89 590.69Z" fill="white"/>
</g>
<defs>
<clipPath id="clip0_2_3375">
<rect width="1024" height="1024" fill="white"/>
</clipPath>
</defs>
</svg>
